packages/opendesign/src/icons/svgs/fill/x.svg

<?xml version="1.0" encoding="UTF-8"?>
<svg width="24px" height="24px" viewBox="0 0 24 24" version="1.1" xmlns="http://www.w3.org/2000/svg" xmlns:xlink="http://www.w3.org/1999/xlink">
    <title>x</title>
    <defs>
        <path d="M19.7781746,4.22182541 C20.0710678,4.51471863 20.0710678,4.98959236 19.7781746,5.28248558 L5.28248558,19.7781746 C4.98959236,20.0710678 4.51471863,20.0710678 4.22182541,19.7781746 C3.92893219,19.4852814 3.92893219,19.0104076 4.22182541,18.7175144 L10.9395166,11.9994697 L4.22182541,5.28248558 C3.92893219,4.98959236 3.92893219,4.51471863 4.22182541,4.22182541 C4.51471863,3.92893219 4.98959236,3.92893219 5.28248558,4.22182541 L12,10.9389863 L18.7175144,4.22182541 C19.0104076,3.92893219 19.4852814,3.92893219 19.7781746,4.22182541 Z M19.7781746,18.7175144 C20.0710678,19.0104076 20.0710678,19.4852814 19.7781746,19.7781746 C19.4852814,20.0710678 19.0104076,20.0710678 18.7175144,19.7781746 L12.7072836,13.7675902 L13.767767,12.7071068 L19.7781746,18.7175144 Z" id="path-1"></path>
    </defs>
    <g id="x" stroke="none" stroke-width="1" fill="none" fill-rule="evenodd">
        <mask id="mask-2" fill="white">
            <use xlink:href="#path-1"></use>
        </mask>
        <use id="path1" fill="#000000" xlink:href="#path-1"></use>
    </g>
</svg>

<!-- Generated by IcoMoon.io -->
<svg version="1.1" xmlns="http://www.w3.org/2000/svg" width="24" height="24" viewBox="0 0 24 24">
<title>x</title>
<path d="M19.778 4.222c0.293 0.293 0.293 0.768 0 1.061l-14.496 14.496c-0.293 0.293-0.768 0.293-1.061 0s-0.293-0.768 0-1.061l6.718-6.718-6.718-6.717c-0.293-0.293-0.293-0.768 0-1.061s0.768-0.293 1.061 0l6.718 6.717 6.718-6.717c0.293-0.293 0.768-0.293 1.061 0zM19.778 18.718c0.293 0.293 0.293 0.768 0 1.061s-0.768 0.293-1.061 0l-6.010-6.011 1.060-1.060 6.010 6.010z"></path>
</svg>
